modules/themify-icons/icons/magnet.svg

<?xml version="1.0" encoding="utf-8"?>
<!-- Generated by IcoMoon.io -->
<!DOCTYPE svg PUBLIC "-//W3C//DTD SVG 1.1//EN" "http://www.w3.org/Graphics/SVG/1.1/DTD/svg11.dtd">
<svg version="1.1" xmlns="http://www.w3.org/2000/svg" xmlns:xlink="http://www.w3.org/1999/xlink" width="17" height="17" viewBox="0 0 17 17">
<g>
</g>
	<path d="M11 0v10.122c0 1.329-1.122 2.409-2.5 2.409s-2.5-1.080-2.5-2.409v-10.122h-5v10.432c0 4.266 3.864 6.568 7.5 6.568s7.5-2.302 7.5-6.568v-10.432h-5zM15 1v3h-3v-3h3zM5 1v3h-3v-3h3zM8.5 16c-2.613 0-6.5-1.483-6.5-5.568v-5.432h3v5.122c0 1.88 1.57 3.409 3.5 3.409s3.5-1.529 3.5-3.409v-5.122h3v5.432c0 4.085-3.887 5.568-6.5 5.568z" fill="#000000" />
</svg>

<svg xmlns="http://www.w3.org/2000/svg" width="17" height="17"><path d="M11 0v10.122c0 1.329-1.122 2.409-2.5 2.409S6 11.451 6 10.122V0H1v10.432C1 14.698 4.864 17 8.5 17s7.5-2.302 7.5-6.568V0h-5zm4 1v3h-3V1h3zM5 1v3H2V1h3zm3.5 15C5.887 16 2 14.517 2 10.432V5h3v5.122c0 1.88 1.57 3.409 3.5 3.409s3.5-1.529 3.5-3.409V5h3v5.432C15 14.517 11.113 16 8.5 16z"/></svg>
